logos/incf.svg

<?xml version="1.0" encoding="UTF-8"?>
<!DOCTYPE svg PUBLIC "-//W3C//DTD SVG 1.1//EN" "http://www.w3.org/Graphics/SVG/1.1/DTD/svg11.dtd">
<svg xmlns="http://www.w3.org/2000/svg" version="1.1" width="300px" height="72px" style="shape-rendering:geometricPrecision; text-rendering:geometricPrecision; image-rendering:optimizeQuality; fill-rule:evenodd; clip-rule:evenodd" xmlns:xlink="http://www.w3.org/1999/xlink">
<g><path style="opacity:0.795" fill="#00aeef" d="M 125.5,-0.5 C 126.833,-0.5 128.167,-0.5 129.5,-0.5C 129.5,23.5 129.5,47.5 129.5,71.5C 128.167,71.5 126.833,71.5 125.5,71.5C 125.5,47.5 125.5,23.5 125.5,-0.5 Z"/></g>
<g><path style="opacity:0.828" fill="#00aeef" d="M 20.5,14.5 C 27.6223,16.0593 28.9556,19.5593 24.5,25C 18,26.5 15.5,24 17,17.5C 18.1451,16.3636 19.3117,15.3636 20.5,14.5 Z"/></g>
<g><path style="opacity:0.671" fill="#656867" d="M 165.5,14.5 C 166.833,14.5 168.167,14.5 169.5,14.5C 169.5,15.8333 169.5,17.1667 169.5,18.5C 171.911,18.1367 173.411,19.1367 174,21.5C 174.497,19.1902 174.663,16.8568 174.5,14.5C 175.833,14.5 177.167,14.5 178.5,14.5C 178.5,19.5 178.5,24.5 178.5,29.5C 177.167,29.5 175.833,29.5 174.5,29.5C 174.649,28.448 174.483,27.448 174,26.5C 173.653,28.1802 172.653,29.1802 171,29.5C 166.991,29.4615 162.824,29.2948 158.5,29C 156.561,25.3108 157.561,22.9774 161.5,22C 160.207,21.51 158.873,21.3433 157.5,21.5C 157.5,20.5 157.5,19.5 157.5,18.5C 159.792,18.2436 161.959,18.5769 164,19.5C 164.333,22.1667 164.667,24.8333 165,27.5C 165.499,23.1794 165.666,18.8461 165.5,14.5 Z"/></g>
<g><path style="opacity:0.748" fill="#656867" d="M 179.5,14.5 C 180.5,14.5 181.5,14.5 182.5,14.5C 182.227,19.3334 182.227,24.3334 182.5,29.5C 181.5,29.5 180.5,29.5 179.5,29.5C 179.773,24.3334 179.773,19.3334 179.5,14.5 Z"/></g>
<g><path style="opacity:0.717" fill="#656867" d="M 265.5,14.5 C 266.5,14.5 267.5,14.5 268.5,14.5C 268.827,19.544 268.494,24.544 267.5,29.5C 266.402,28.3845 265.235,28.3845 264,29.5C 262.739,29.2409 261.739,28.5742 261,27.5C 259.951,29.1066 258.451,29.7733 256.5,29.5C 256.167,18.8333 255.833,18.8333 255.5,29.5C 254.167,29.5 252.833,29.5 251.5,29.5C 251.5,25.8333 251.5,22.1667 251.5,18.5C 253.857,18.3367 256.19,18.5034 258.5,19C 259.274,21.405 259.774,23.905 260,26.5C 260.333,24.5 260.667,22.5 261,20.5C 262.11,18.9632 263.61,18.2965 265.5,18.5C 265.5,17.1667 265.5,15.8333 265.5,14.5 Z"/></g>
<g><path style="opacity:0.87" fill="#656867" d="M 105.5,16.5 C 111.885,15.2136 113.885,17.5469 111.5,23.5C 104.714,25.7515 104.881,27.4181 112,28.5C 113.476,33.3621 111.643,35.5288 106.5,35C 107.642,41.0844 107.809,47.2511 107,53.5C 103.606,54.4558 100.106,54.7892 96.5,54.5C 96.5,47.8333 96.5,41.1667 96.5,34.5C 95.1667,34.5 93.8333,34.5 92.5,34.5C 92.5,32.1667 92.5,29.8333 92.5,27.5C 93.8333,27.5 95.1667,27.5 96.5,27.5C 96.2622,21.0791 99.2622,17.4125 105.5,16.5 Z"/></g>
<g><path style="opacity:0.659" fill="#656867" d="M 141.5,18.5 C 146.906,17.7353 148.906,20.0687 147.5,25.5C 142.167,25.8333 142.167,26.1667 147.5,26.5C 147.5,27.5 147.5,28.5 147.5,29.5C 139.524,29.2193 137.524,25.5526 141.5,18.5 Z"/></g>
<g><path style="opacity:0.702" fill="#656867" d="M 148.5,18.5 C 151.119,18.2317 153.619,18.565 156,19.5C 156.498,22.8168 156.665,26.1501 156.5,29.5C 155.167,29.5 153.833,29.5 152.5,29.5C 152.782,26.6533 152.782,23.9866 152.5,21.5C 151.52,24.0865 151.187,26.7531 151.5,29.5C 150.5,29.5 149.5,29.5 148.5,29.5C 148.5,25.8333 148.5,22.1667 148.5,18.5 Z"/></g>
<g><path style="opacity:0.671" fill="#656867" d="M 192.5,26.5 C 192.5,27.5 192.5,28.5 192.5,29.5C 191.167,29.5 189.833,29.5 188.5,29.5C 188.167,18.8333 187.833,18.8333 187.5,29.5C 186.167,29.5 184.833,29.5 183.5,29.5C 183.5,25.8333 183.5,22.1667 183.5,18.5C 185.857,18.3367 188.19,18.5034 190.5,19C 191.123,21.6073 191.79,24.1073 192.5,26.5 Z"/></g>
<g><path style="opacity:0.655" fill="#656867" d="M 192.5,26.5 C 191.67,19.6666 194.67,16.9999 201.5,18.5C 201.867,22.9671 201.367,27.3004 200,31.5C 198.211,33.229 196.044,33.8957 193.5,33.5C 193.343,32.1266 193.51,30.7932 194,29.5C 194.718,30.4506 195.551,30.6172 196.5,30C 194.973,28.9681 193.64,27.8014 192.5,26.5 Z"/></g>
<g><path style="opacity:0.674" fill="#656867" d="M 206.5,18.5 C 210.162,17.6371 212.328,18.9704 213,22.5C 213.49,21.2068 213.657,19.8734 213.5,18.5C 215.857,18.3367 218.19,18.5034 220.5,19C 221.227,20.3988 221.727,21.8988 222,23.5C 223.238,18.3629 225.905,17.3629 230,20.5C 232.522,18.3379 235.355,18.0045 238.5,19.5C 239.417,22.7577 239.751,26.091 239.5,29.5C 238.167,29.5 236.833,29.5 235.5,29.5C 235.167,18.8333 234.833,18.8333 234.5,29.5C 233.167,29.5 231.833,29.5 230.5,29.5C 230.5,28.1667 230.5,26.8333 230.5,25.5C 224.833,25.6636 224.5,25.9969 229.5,26.5C 229.5,27.5 229.5,28.5 229.5,29.5C 225.243,30.4029 222.743,28.7363 222,24.5C 220.229,27.4297 218.729,30.4297 217.5,33.5C 216.167,33.5 214.833,33.5 213.5,33.5C 213.665,30.4816 213.498,27.4816 213,24.5C 211.281,30.0982 208.615,30.7649 205,26.5C 204.282,23.5929 204.782,20.9262 206.5,18.5 Z"/></g>
<g><path style="opacity:0.7" fill="#656867" d="M 243.5,18.5 C 245.792,18.2436 247.959,18.5769 250,19.5C 250.498,22.8168 250.665,26.1501 250.5,29.5C 247.635,29.9452 245.135,29.2785 243,27.5C 242.439,24.7019 243.606,22.8686 246.5,22C 245.552,21.5172 244.552,21.3505 243.5,21.5C 243.5,20.5 243.5,19.5 243.5,18.5 Z"/></g>
<g><path style="opacity:0.784" fill="#656867" d="M -0.5,34.5 C -0.5,33.5 -0.5,32.5 -0.5,31.5C 2.63394,30.0991 5.63394,28.4325 8.5,26.5C 8.83333,26.8333 9.16667,27.1667 9.5,27.5C 8.1969,31.0316 8.1969,34.5316 9.5,38C 5.94193,37.6414 2.60859,36.4747 -0.5,34.5 Z"/></g>
<g><path style="opacity:0.871" fill="#656867" d="M 47.5,26.5 C 52.2474,26.1357 56.0807,27.8023 59,31.5C 59.4997,39.1594 59.6664,46.8261 59.5,54.5C 55.8936,54.7892 52.3936,54.4558 49,53.5C 48.6667,47.8333 48.3333,42.1667 48,36.5C 44.9377,34.8695 43.271,35.8695 43,39.5C 42.5007,44.4889 42.3341,49.4889 42.5,54.5C 38.8936,54.7892 35.3936,54.4558 32,53.5C 31.5002,44.8397 31.3336,36.1731 31.5,27.5C 35.6732,26.9564 39.5065,27.623 43,29.5C 44.4087,28.2189 45.9087,27.2189 47.5,26.5 Z"/></g>
<g><path style="opacity:0.861" fill="#656867" d="M 74.5,26.5 C 83.3537,25.418 89.0204,29.0846 91.5,37.5C 91.2907,38.086 90.9574,38.586 90.5,39C 87.5,39.6667 84.5,39.6667 81.5,39C 80.3065,34.8013 78.1399,33.9679 75,36.5C 74.2165,39.7603 74.3832,42.9269 75.5,46C 76.8333,46.6667 78.1667,46.6667 79.5,46C 82.1978,41.5021 86.0311,40.3355 91,42.5C 89.3145,52.9479 83.1479,56.7812 72.5,54C 63.5374,49.6708 61.0374,42.8374 65,33.5C 67.393,30.0596 70.5597,27.7262 74.5,26.5 Z"/></g>
<g><path style="opacity:0.871" fill="#666767" d="M 10.5,27.5 C 16.1667,27.5 21.8333,27.5 27.5,27.5C 27.6664,36.1731 27.4998,44.8397 27,53.5C 23.6667,54.8333 20.3333,54.8333 17,53.5C 16.5007,48.5111 16.3341,43.5111 16.5,38.5C 14.5328,38.7394 12.6995,38.4061 11,37.5C 10.5017,34.1832 10.335,30.8499 10.5,27.5 Z"/></g>
<g><path style="opacity:0.718" fill="#656867" d="M 140.5,38.5 C 142.833,38.5 145.167,38.5 147.5,38.5C 147.5,39.8333 147.5,41.1667 147.5,42.5C 146.022,42.238 144.689,42.5713 143.5,43.5C 144.325,44.3857 145.325,44.719 146.5,44.5C 146.5,45.5 146.5,46.5 146.5,47.5C 145.5,47.5 144.5,47.5 143.5,47.5C 143.5,49.5 143.5,51.5 143.5,53.5C 142.5,53.5 141.5,53.5 140.5,53.5C 140.5,48.5 140.5,43.5 140.5,38.5 Z"/></g>
<g><path style="opacity:0.694" fill="#656867" d="M 149.5,38.5 C 150.833,38.5 152.167,38.5 153.5,38.5C 154.426,43.4632 155.092,48.4632 155.5,53.5C 154.5,53.5 153.5,53.5 152.5,53.5C 152.181,49.7002 151.181,49.5335 149.5,53C 148.552,53.4828 147.552,53.6495 146.5,53.5C 147.121,48.3945 148.121,43.3945 149.5,38.5 Z"/></g>
<g><path style="opacity:0.622" fill="#656867" d="M 156.5,38.5 C 157.833,38.5 159.167,38.5 160.5,38.5C 160.5,43.5 160.5,48.5 160.5,53.5C 159.167,53.5 157.833,53.5 156.5,53.5C 156.5,48.5 156.5,43.5 156.5,38.5 Z"/></g>
<g><path style="opacity:0.696" fill="#656867" d="M 161.5,38.5 C 164.97,37.8748 167.804,38.8748 170,41.5C 170.624,43.4645 170.124,45.1311 168.5,46.5C 169.577,48.7294 170.244,51.0628 170.5,53.5C 169.167,53.5 167.833,53.5 166.5,53.5C 166.819,51.2495 166.319,49.2495 165,47.5C 165.135,49.4247 165.302,51.4247 165.5,53.5C 164.167,53.5 162.833,53.5 161.5,53.5C 161.5,48.5 161.5,43.5 161.5,38.5 Z M 165.5,42.5 C 166.773,43.0768 166.773,43.7435 165.5,44.5C 164.537,44.0302 164.537,43.3635 165.5,42.5 Z"/></g>
<g><path style="opacity:0.648" fill="#656867" d="M 220.5,45.5 C 222.584,43.1697 225.251,42.003 228.5,42C 227.179,40.4555 227.512,39.2888 229.5,38.5C 231.488,39.2888 231.821,40.4555 230.5,42C 231.227,43.3988 231.727,44.8988 232,46.5C 232.977,42.5606 235.311,41.5606 239,43.5C 239.495,45.4727 239.662,47.4727 239.5,49.5C 234.167,49.8333 234.167,50.1667 239.5,50.5C 239.5,51.5 239.5,52.5 239.5,53.5C 235.758,54.2743 233.258,52.941 232,49.5C 231.51,50.7932 231.343,52.1266 231.5,53.5C 227.397,54.2309 223.897,53.2309 221,50.5C 219.713,53.1446 217.547,54.1446 214.5,53.5C 214.649,52.448 214.483,51.448 214,50.5C 212.455,53.2933 210.288,53.96 207.5,52.5C 206.205,50.6721 205.205,48.6721 204.5,46.5C 204.162,48.6552 204.162,50.9885 204.5,53.5C 203.167,53.5 201.833,53.5 200.5,53.5C 200.5,49.8333 200.5,46.1667 200.5,42.5C 204.6,43.2175 208.6,43.3841 212.5,43C 213.191,44.0674 213.691,45.2341 214,46.5C 214.672,42.9704 216.838,41.6371 220.5,42.5C 220.5,43.5 220.5,44.5 220.5,45.5 Z M 220.5,45.5 C 220.304,47.6456 219.304,47.8122 217.5,46C 218.448,45.5172 219.448,45.3505 220.5,45.5 Z M 224.5,45.5 C 225.5,45.5 226.5,45.5 227.5,45.5C 227.785,47.288 227.452,48.9547 226.5,50.5C 224.783,49.3315 224.116,47.6648 224.5,45.5 Z M 214.5,47.5 C 215.627,48.1217 216.627,48.955 217.5,50C 215.511,50.5192 214.511,49.6859 214.5,47.5 Z"/></g>
<g><path style="opacity:0.673" fill="#656867" d="M 182.5,50.5 C 182.5,51.5 182.5,52.5 182.5,53.5C 181.167,53.5 179.833,53.5 178.5,53.5C 178.167,42.8333 177.833,42.8333 177.5,53.5C 176.167,53.5 174.833,53.5 173.5,53.5C 173.5,49.8333 173.5,46.1667 173.5,42.5C 175.857,42.3367 178.19,42.5034 180.5,43C 181.123,45.6073 181.79,48.1073 182.5,50.5 Z"/></g>
<g><path style="opacity:0.659" fill="#656867" d="M 182.5,50.5 C 181.652,44.0669 184.152,41.7336 190,43.5C 190.495,45.4727 190.662,47.4727 190.5,49.5C 185.167,49.8333 185.167,50.1667 190.5,50.5C 190.5,51.5 190.5,52.5 190.5,53.5C 187.169,53.9819 184.503,52.9819 182.5,50.5 Z"/></g>
<g><path style="opacity:0.698" fill="#656867" d="M 191.5,42.5 C 192.5,42.5 193.5,42.5 194.5,42.5C 194.833,53.1667 195.167,53.1667 195.5,42.5C 196.833,42.5 198.167,42.5 199.5,42.5C 199.5,46.1667 199.5,49.8333 199.5,53.5C 197,52.8766 194.5,52.5433 192,52.5C 191.502,49.1832 191.335,45.8499 191.5,42.5 Z"/></g>
<g><path style="opacity:0.691" fill="#656867" d="M 240.5,42.5 C 243.119,42.2317 245.619,42.565 248,43.5C 248.498,46.8168 248.665,50.1501 248.5,53.5C 247.5,53.5 246.5,53.5 245.5,53.5C 245.167,42.8333 244.833,42.8333 244.5,53.5C 243.167,53.5 241.833,53.5 240.5,53.5C 240.5,49.8333 240.5,46.1667 240.5,42.5 Z"/></g>
<g><path style="opacity:0.663" fill="#656867" d="M 256.5,44.5 C 255.833,44.5 255.5,44.8333 255.5,45.5C 253.748,45.4176 252.748,46.2509 252.5,48C 252.748,49.7491 253.748,50.5824 255.5,50.5C 255.5,51.1667 255.833,51.5 256.5,51.5C 252.418,54.6814 250.084,53.5148 249.5,48C 250.084,42.4852 252.418,41.3186 256.5,44.5 Z"/></g>
<g><path style="opacity:0.645" fill="#656867" d="M 256.5,51.5 C 255.833,51.5 255.5,51.1667 255.5,50.5C 255.5,48.8333 255.5,47.1667 255.5,45.5C 256.167,45.5 256.5,45.1667 256.5,44.5C 262.009,40.9657 264.675,42.6323 264.5,49.5C 258.833,49.6636 258.5,49.9969 263.5,50.5C 263.5,51.5 263.5,52.5 263.5,53.5C 260.812,53.8342 258.479,53.1675 256.5,51.5 Z"/></g>
<g><path style="opacity:0.803" fill="#656867" d="M 16.5,56.5 C 20.1667,56.5 23.8333,56.5 27.5,56.5C 27.5,60.1667 27.5,63.8333 27.5,67.5C 23.8333,67.5 20.1667,67.5 16.5,67.5C 16.5,63.8333 16.5,60.1667 16.5,56.5 Z"/></g>
</svg>

<svg xmlns="http://www.w3.org/2000/svg" width="300" height="72" style="shape-rendering:geometricPrecision;text-rendering:geometricPrecision;image-rendering:optimizeQuality;fill-rule:evenodd;clip-rule:evenodd"><path style="opacity:.795" fill="#00aeef" d="M125.5-.5h4v72h-4v-72z"/><path style="opacity:.828" fill="#00aeef" d="M20.5 14.5c7.122 1.56 8.456 5.06 4 10.5-6.5 1.5-9-1-7.5-7.5a30.139 30.139 0 0 1 3.5-3z"/><path style="opacity:.671" fill="#656867" d="M165.5 14.5h4v4c2.411-.363 3.911.637 4.5 3 .497-2.31.663-4.643.5-7h4v15h-4a4.934 4.934 0 0 0-.5-3c-.347 1.68-1.347 2.68-3 3a214.197 214.197 0 0 1-12.5-.5c-1.939-3.69-.939-6.023 3-7a8.435 8.435 0 0 0-4-.5v-3c2.292-.256 4.459.077 6.5 1l1 8a84.9 84.9 0 0 0 .5-13z"/><path style="opacity:.748" fill="#656867" d="M179.5 14.5h3c-.273 4.833-.273 9.833 0 15h-3c.273-5.167.273-10.167 0-15z"/><path style="opacity:.717" fill="#656867" d="M265.5 14.5h3a57.15 57.15 0 0 1-1 15c-1.098-1.116-2.265-1.116-3.5 0-1.261-.26-2.261-.926-3-2-1.049 1.607-2.549 2.273-4.5 2-.333-10.667-.667-10.667-1 0h-4v-11c2.357-.163 4.69.003 7 .5a34.041 34.041 0 0 1 1.5 7.5l1-6c1.11-1.537 2.61-2.203 4.5-2v-4z"/><path style="opacity:.87" fill="#656867" d="M105.5 16.5c6.385-1.286 8.385 1.047 6 7-6.786 2.252-6.619 3.918.5 5 1.476 4.862-.357 7.029-5.5 6.5 1.142 6.084 1.309 12.251.5 18.5-3.394.956-6.894 1.29-10.5 1v-20h-4v-7h4c-.238-6.42 2.762-10.087 9-11z"/><path style="opacity:.659" fill="#656867" d="M141.5 18.5c5.406-.765 7.406 1.569 6 7-5.333.333-5.333.667 0 1v3c-7.976-.28-9.976-3.947-6-11z"/><path style="opacity:.702" fill="#656867" d="M148.5 18.5c2.619-.268 5.119.065 7.5 1 .498 3.317.665 6.65.5 10h-4c.282-2.847.282-5.513 0-8a16.874 16.874 0 0 0-1 8h-3v-11z"/><path style="opacity:.671" fill="#656867" d="M192.5 26.5v3h-4c-.333-10.667-.667-10.667-1 0h-4v-11c2.357-.163 4.69.003 7 .5.623 2.607 1.29 5.107 2 7.5z"/><path style="opacity:.655" fill="#656867" d="M192.5 26.5c-.83-6.833 2.17-9.5 9-8 .367 4.467-.133 8.8-1.5 13-1.789 1.729-3.956 2.396-6.5 2a8.43 8.43 0 0 1 .5-4c.718.95 1.551 1.117 2.5.5a20.656 20.656 0 0 1-4-3.5z"/><path style="opacity:.674" fill="#656867" d="M206.5 18.5c3.662-.863 5.828.47 6.5 4a8.43 8.43 0 0 0 .5-4c2.357-.163 4.69.003 7 .5a15.252 15.252 0 0 1 1.5 4.5c1.238-5.137 3.905-6.137 8-3 2.522-2.162 5.355-2.495 8.5-1a28.818 28.818 0 0 1 1 10h-4c-.333-10.667-.667-10.667-1 0h-4v-4c-5.667.164-6 .497-1 1v3c-4.257.903-6.757-.764-7.5-5a61.724 61.724 0 0 0-4.5 9h-4a40.911 40.911 0 0 0-.5-9c-1.719 5.598-4.385 6.265-8 2-.718-2.907-.218-5.574 1.5-8z"/><path style="opacity:.7" fill="#656867" d="M243.5 18.5c2.292-.256 4.459.077 6.5 1 .498 3.317.665 6.65.5 10-2.865.445-5.365-.221-7.5-2-.561-2.798.606-4.631 3.5-5.5a4.932 4.932 0 0 0-3-.5v-3z"/><path style="opacity:.784" fill="#656867" d="M-.5 34.5v-3a59.515 59.515 0 0 0 9-5l1 1c-1.303 3.532-1.303 7.032 0 10.5-3.558-.359-6.891-1.525-10-3.5z"/><path style="opacity:.871" fill="#656867" d="M47.5 26.5c4.747-.364 8.58 1.302 11.5 5 .5 7.66.666 15.326.5 23-3.606.29-7.106-.044-10.5-1l-1-17c-3.062-1.63-4.729-.63-5 3-.5 4.989-.666 9.989-.5 15-3.606.29-7.106-.044-10.5-1-.5-8.66-.666-17.327-.5-26 4.173-.544 8.007.123 11.5 2 1.409-1.281 2.909-2.281 4.5-3z"/><path style="opacity:.861" fill="#656867" d="M74.5 26.5c8.854-1.082 14.52 2.585 17 11a3.646 3.646 0 0 1-1 1.5c-3 .667-6 .667-9 0-1.194-4.199-3.36-5.032-6.5-2.5-.784 3.26-.617 6.427.5 9.5 1.333.667 2.667.667 4 0 2.698-4.498 6.531-5.664 11.5-3.5-1.686 10.448-7.852 14.281-18.5 11.5-8.963-4.33-11.463-11.163-7.5-20.5 2.393-3.44 5.56-5.774 9.5-7z"/><path style="opacity:.871" fill="#666767" d="M10.5 27.5h17c.166 8.673 0 17.34-.5 26-3.333 1.333-6.667 1.333-10 0-.5-4.989-.666-9.989-.5-15-1.967.24-3.8-.094-5.5-1a50.441 50.441 0 0 1-.5-10z"/><path style="opacity:.718" fill="#656867" d="M140.5 38.5h7v4c-1.478-.262-2.811.071-4 1 .825.886 1.825 1.219 3 1v3h-3v6h-3v-15z"/><path style="opacity:.694" fill="#656867" d="M149.5 38.5h4a146 146 0 0 1 2 15h-3c-.319-3.8-1.319-3.967-3-.5a4.932 4.932 0 0 1-3 .5 99.552 99.552 0 0 1 3-15z"/><path style="opacity:.622" fill="#656867" d="M156.5 38.5h4v15h-4v-15z"/><path style="opacity:.696" fill="#656867" d="M161.5 38.5c3.47-.625 6.304.375 8.5 3 .624 1.965.124 3.631-1.5 5a21.029 21.029 0 0 1 2 7h-4c.319-2.25-.181-4.25-1.5-6 .135 1.925.302 3.925.5 6h-4v-15zm4 4c1.273.577 1.273 1.243 0 2-.963-.47-.963-1.136 0-2z"/><path style="opacity:.648" fill="#656867" d="M220.5 45.5c2.084-2.33 4.751-3.497 8-3.5-1.321-1.544-.988-2.711 1-3.5 1.988.789 2.321 1.956 1 3.5a15.252 15.252 0 0 1 1.5 4.5c.977-3.94 3.311-4.94 7-3 .495 1.973.662 3.973.5 6-5.333.333-5.333.667 0 1v3c-3.742.774-6.242-.559-7.5-4a8.43 8.43 0 0 0-.5 4c-4.103.73-7.603-.27-10.5-3-1.287 2.645-3.453 3.645-6.5 3a4.934 4.934 0 0 0-.5-3c-1.545 2.793-3.712 3.46-6.5 2a22.133 22.133 0 0 1-3-6c-.338 2.155-.338 4.489 0 7h-4v-11c4.1.718 8.1.884 12 .5a11.339 11.339 0 0 1 1.5 3.5c.672-3.53 2.838-4.863 6.5-4v3zm0 0c-.196 2.146-1.196 2.312-3 .5a4.932 4.932 0 0 1 3-.5zm4 0h3c.285 1.788-.048 3.455-1 5-1.717-1.169-2.384-2.835-2-5zm-10 2a10.51 10.51 0 0 1 3 2.5c-1.989.52-2.989-.314-3-2.5z"/><path style="opacity:.673" fill="#656867" d="M182.5 50.5v3h-4c-.333-10.667-.667-10.667-1 0h-4v-11c2.357-.163 4.69.003 7 .5.623 2.607 1.29 5.107 2 7.5z"/><path style="opacity:.659" fill="#656867" d="M182.5 50.5c-.848-6.433 1.652-8.766 7.5-7 .495 1.973.662 3.973.5 6-5.333.333-5.333.667 0 1v3c-3.331.482-5.997-.518-8-3z"/><path style="opacity:.698" fill="#656867" d="M191.5 42.5h3c.333 10.667.667 10.667 1 0h4v11c-2.5-.623-5-.957-7.5-1a50.464 50.464 0 0 1-.5-10z"/><path style="opacity:.691" fill="#656867" d="M240.5 42.5c2.619-.268 5.119.065 7.5 1 .498 3.317.665 6.65.5 10h-3c-.333-10.667-.667-10.667-1 0h-4v-11z"/><path style="opacity:.663" fill="#656867" d="M256.5 44.5c-.667 0-1 .333-1 1-1.752-.082-2.752.75-3 2.5.248 1.75 1.248 2.582 3 2.5 0 .667.333 1 1 1-4.082 3.181-6.416 2.015-7-3.5.584-5.515 2.918-6.681 7-3.5z"/><path style="opacity:.645" fill="#656867" d="M256.5 51.5c-.667 0-1-.333-1-1v-5c.667 0 1-.333 1-1 5.509-3.534 8.175-1.868 8 5-5.667.164-6 .497-1 1v3c-2.688.334-5.021-.333-7-2z"/><path style="opacity:.803" fill="#656867" d="M16.5 56.5h11v11h-11v-11z"/></svg>
